icons/circle/48/datagrip.svg

<svg xmlns="http://www.w3.org/2000/svg" version="1.1" viewBox="0 0 48 48">
 <defs>
  <linearGradient id="linearGradient4195" y2="46" gradientUnits="userSpaceOnUse" x2="24" y1="2" x1="24">
   <stop style="stop-color:#24d690" offset="0"/>
   <stop style="stop-color:#82a0b5" offset="1"/>
  </linearGradient>
 </defs>
 <g>
  <path style="opacity:.05" d="m36.31 5c5.859 4.062 9.688 10.831 9.688 18.5 0 12.426-10.07 22.5-22.5 22.5-7.669 0-14.438-3.828-18.5-9.688 1.037 1.822 2.306 3.499 3.781 4.969 4.085 3.712 9.514 5.969 15.469 5.969 12.703 0 23-10.298 23-23 0-5.954-2.256-11.384-5.969-15.469-1.469-1.475-3.147-2.744-4.969-3.781zm4.969 3.781c3.854 4.113 6.219 9.637 6.219 15.719 0 12.703-10.297 23-23 23-6.081 0-11.606-2.364-15.719-6.219 4.16 4.144 9.883 6.719 16.219 6.719 12.703 0 23-10.298 23-23 0-6.335-2.575-12.06-6.719-16.219z"/>
  <path style="opacity:.1" d="m41.28 8.781c3.712 4.085 5.969 9.514 5.969 15.469 0 12.703-10.297 23-23 23-5.954 0-11.384-2.256-15.469-5.969 4.113 3.854 9.637 6.219 15.719 6.219 12.703 0 23-10.298 23-23 0-6.081-2.364-11.606-6.219-15.719z"/>
  <path style="opacity:.2" d="m31.25 2.375c8.615 3.154 14.75 11.417 14.75 21.13 0 12.426-10.07 22.5-22.5 22.5-9.708 0-17.971-6.135-21.12-14.75a23 23 0 0 0 44.875 -7 23 23 0 0 0 -16 -21.875z"/>
 </g>
 <path style="fill:url(#linearGradient4195)" d="m47 24a23 23 0 0 1 -23 23 23 23 0 0 1 -23 -23 23 23 0 0 1 23 -23 23 23 0 0 1 23 23z"/>
 <g>
  <path style="opacity:.1" d="m40.03 7.531c3.712 4.084 5.969 9.514 5.969 15.469 0 12.703-10.297 23-23 23-5.954 0-11.384-2.256-15.469-5.969 4.178 4.291 10.01 6.969 16.469 6.969 12.703 0 23-10.298 23-23 0-6.462-2.677-12.291-6.969-16.469z"/>
 </g>
 <g>
  <path style="fill-opacity:.1" d="m12 12h26v26h-26z"/>
  <path style="fill:#303030" d="m11 11h26v26h-26z"/>
  <path style="fill:#f9f9f9" d="m14 14h4.3255c2.587 0 4.674 2.017 4.674 5.475v0.05c0 3.4919-2.5088 5.4336-4.4452 5.4566l-1.555 0.018h-3zm4 9c1.2037 0 3-0.98314 3-3.475v-0.05c0-2.458-1.796-3.475-3-3.475h-2v7z"/>
  <path style="fill:#f9f9f9" d="m29.5 14c-1.5871 0-2.9996 0.52305-3.9883 1.5117-0.989 0.988-1.512 2.401-1.512 3.988 0 1.5871 0.52305 2.9996 1.5117 3.9883 0.988 0.989 2.401 1.512 3.988 1.512 1.4523 0 2.5413-0.45447 3.2461-0.92969 0.70484-0.47522 1.0879-1.0371 1.0879-1.0371l0.166-0.25v-3.783h-5v2h3v1.0801c-0.06209 0.07666-0.08078 0.13629-0.37109 0.33203-0.42 0.283-1.081 0.588-2.129 0.588-1.163 0-2-0.352-2.574-0.926s-0.926-1.411-0.926-2.574 0.352-2 0.926-2.574 1.411-0.926 2.574-0.926c1.1629 0 2.0005 0.35194 2.5742 0.92578l1.4141-1.4141c-0.988-0.989-2.401-1.512-3.988-1.512z"/>
  <path style="fill:#f9f9f9" d="m13 32h10v2h-10z"/>
 </g>
</svg>

<svg xmlns="http://www.w3.org/2000/svg" viewBox="0 0 48 48">
  <defs>
    <linearGradient id="a" y2="46" gradientUnits="userSpaceOnUse" x2="24" y1="2" x1="24">
      <stop offset="0" stop-color="#24d690"/>
      <stop offset="1" stop-color="#82a0b5"/>
    </linearGradient>
  </defs>
  <path d="M36.31 5c5.859 4.062 9.688 10.831 9.688 18.5 0 12.426-10.07 22.5-22.5 22.5-7.669 0-14.438-3.828-18.5-9.688a23.24 23.24 0 0 0 3.781 4.969 22.923 22.923 0 0 0 15.469 5.969c12.703 0 23-10.298 23-23a22.92 22.92 0 0 0-5.969-15.469A23.216 23.216 0 0 0 36.31 5zm4.969 3.781A22.911 22.911 0 0 1 47.498 24.5c0 12.703-10.297 23-23 23a22.909 22.909 0 0 1-15.719-6.219C12.939 45.425 18.662 48 24.998 48c12.703 0 23-10.298 23-23 0-6.335-2.575-12.06-6.719-16.219z" opacity=".05"/>
  <path d="M41.28 8.781a22.923 22.923 0 0 1 5.969 15.469c0 12.703-10.297 23-23 23A22.92 22.92 0 0 1 8.78 41.281 22.911 22.911 0 0 0 24.499 47.5c12.703 0 23-10.298 23-23A22.909 22.909 0 0 0 41.28 8.781z" opacity=".1"/>
  <path d="M31.25 2.375C39.865 5.529 46 13.792 46 23.505c0 12.426-10.07 22.5-22.5 22.5-9.708 0-17.971-6.135-21.12-14.75a23 23 0 0 0 44.875-7 23 23 0 0 0-16-21.875z" opacity=".2"/>
  <path d="M47 24a23 23 0 0 1-23 23A23 23 0 0 1 1 24 23 23 0 0 1 24 1a23 23 0 0 1 23 23z" fill="url(#a)"/>
  <g>
    <path d="M40.03 7.531A22.922 22.922 0 0 1 45.999 23c0 12.703-10.297 23-23 23A22.92 22.92 0 0 1 7.53 40.031C11.708 44.322 17.54 47 23.999 47c12.703 0 23-10.298 23-23 0-6.462-2.677-12.291-6.969-16.469z" opacity=".1"/>
  </g>
  <g>
    <path d="M12 12h26v26H12z" fill-opacity=".1"/>
    <path d="M11 11h26v26H11z" fill="#303030"/>
    <path d="M14 14h4.325C20.912 14 23 16.017 23 19.475v.05c0 3.492-2.508 5.434-4.445 5.457L17 25h-3zm4 9c1.204 0 3-.983 3-3.475v-.05C21 17.017 19.204 16 18 16h-2v7zM29.5 14c-1.587 0-3 .523-3.988 1.512-.99.988-1.512 2.4-1.512 3.988 0 1.587.523 3 1.511 3.988C26.5 24.477 27.912 25 29.5 25c1.453 0 2.542-.454 3.247-.93.704-.475 1.087-1.037 1.087-1.037l.166-.25V19h-5v2h3v1.08c-.062.077-.08.137-.37.332-.42.283-1.082.588-2.13.588-1.163 0-2-.352-2.574-.926S26 20.664 26 19.5s.352-2 .926-2.574S28.336 16 29.5 16c1.163 0 2 .352 2.575.926l1.414-1.414C32.5 14.523 31.087 14 29.5 14zM13 32h10v2H13z" fill="#f9f9f9"/>
  </g>
</svg>
